Obsidian/actions/24s/distribute-vertical-margin.svg

<svg height="24" viewBox="0 0 24 24" width="24" xmlns="http://www.w3.org/2000/svg"><path d="m1 .98046875v14.00000025h14v-14.00000025zm2 2.00000005h10v10.0000002h-10zm1 1v3h8v-3zm0 5v3.0000002h8v-3.0000002z" fill="#bebebe" transform="translate(4 4)"/></svg>

<svg xmlns="http://www.w3.org/2000/svg" width="24" height="24" viewBox="0 0 24 24">
 <defs>
  <style id="current-color-scheme" type="text/css">
   .ColorScheme-Text { color:#bebebe; } .ColorScheme-Highlight { color:#4285f4; }
  </style>
 </defs>
 <path style="fill:currentColor" class="ColorScheme-Text" d="M 1 0.98046875 L 1 14.980469 L 15 14.980469 L 15 0.98046875 L 1 0.98046875 z M 3 2.9804688 L 13 2.9804688 L 13 12.980469 L 3 12.980469 L 3 2.9804688 z M 4 3.9804688 L 4 6.9804688 L 12 6.9804688 L 12 3.9804688 L 4 3.9804688 z M 4 8.9804688 L 4 11.980469 L 12 11.980469 L 12 8.9804688 L 4 8.9804688 z" transform="translate(4 4)"/>
</svg>
